dist/img/kiss.svg

<svg width="146" height="140" viewBox="0 0 146 140" fill="none" xmlns="http://www.w3.org/2000/svg">
<path fill-rule="evenodd" clip-rule="evenodd" d="M10.8371 101.983C13.3728 102.147 15.8257 102.214 17.1203 100.945C27.0803 95.1768 31.7039 93.3221 15.2587 88.1933C18.371 87.8277 35.775 94.4806 41.2892 87.2256C45.8202 83.7285 23.4277 79.1051 22.2767 75.6026C26.5085 78.4842 45.6085 87.8277 49.2538 79.4707C48.6162 76.5219 46.1025 71.2157 37.6755 68.1783C40.5981 68.8852 45.2216 68.1164 47.0929 65.9875C46.4116 63.2135 35.6582 56.1064 34.6459 46.8569C38.0892 52.3754 42.6227 61.4851 48.0493 63.2001C48.0493 63.2001 49.7648 58.7191 55.6416 56.9289C50.2223 56.9262 44.6278 53.4586 43.9027 50.4212C47.8083 57.3133 61.3553 53.7812 66.9936 59.5443C66.9936 59.5443 65.9642 55.6279 69.758 50.4077C70.1643 49.1739 67.6798 47.002 68.8478 46.5666C69.3808 47.2923 69.5195 49.1471 71.1182 48.8272C74.7635 47.2386 78.0097 42.0937 75.6225 37.5724C77.2797 38.6019 77.4184 42.7254 77.7153 45.0801C79.9151 45.1607 83.8281 44.65 87.8092 49.0073C88.5976 48.3433 88.3299 46.9187 89.0965 46.2252C89.8752 49.0825 89.8679 55.429 93.647 55.3564C96.6474 55.3026 100.48 48.1014 101.118 45.2924C100.979 52.1765 104.486 51.3754 105.556 51.5609C108.386 51.2518 111.36 41.4109 112.723 41.3921C112.26 42.6313 112.117 46.4617 112.392 48.5449C115.402 49.2546 123.157 45.2655 124.632 43.4269C124.44 44.7844 123.771 45.58 124.041 47.4617C126.657 48.1068 142.243 39.9809 146 31.7045C141.805 29.5137 138.546 27.1644 135.346 26.1053C133.492 27.9143 133.351 35.5376 131.056 34.879C132.273 33.1936 134.967 26.7504 132.565 24.643C122.228 16.8478 127.423 30.5029 126.411 31.8953C126.469 29.382 121.743 15.5064 117.368 16.7617C116.504 17.931 114.779 9.7433 111.866 27.5703C112.119 24.6645 115.528 12.9205 99.5676 8.06597C98.767 12.5173 104.284 26.022 102.967 29.1374C102.39 23.3259 98.3533 9.57933 95.4843 6.20855C89.3836 3.62267 78.842 -1.28566 74.0992 0.663154C68.7456 2.29747 82.368 15.5091 78.5767 21.1593C79.4309 13.2619 70.9284 5.07151 65.1953 4.91292C53.3541 11.6034 62.9103 23.9092 61.185 29.6992C60.1556 22.5947 56.7293 20.869 57.3937 12.6356C54.3129 14.8828 54.0379 19.1057 50.9256 22.4039C49.3438 22.8662 48.441 21.9846 46.8544 22.4496C44.0024 25.6537 49.2319 32.6507 48.1369 35.4704C46.3045 30.9196 46.2412 24.4253 41.5787 23.635C37.8167 20.8368 29.7206 23.1727 23.783 27.4896C16.9499 29.5406 10.3018 49.8218 10.6424 52.7651C11.0805 56.5042 16.9256 56.9101 17.3198 60.4717C14.9083 59.0901 14.1369 55.9558 10.0949 56.2918C8.59836 59.496 7.8294 62.0953 7.50575 66.6434C11.6961 69.7346 16.7479 72.4361 18.079 76.6886C14.3924 75.1349 12.2023 68.9874 7.2259 70.6943C0.913564 90.2685 8.49859 86.5294 9.50603 89.2443C7.34271 89.9943 5.25969 87.7686 4.28874 89.1449C-0.565965 99.1712 4.98227 98.9803 5.63687 100.738L1.98671 100.666C0.0788959 102.518 -0.320188 108.862 0.222469 111.622C4.20357 109.539 13.1075 107.359 10.8371 101.983Z" fill="url(#paint0_linear_6_97)" fill-opacity="0.65"/>
<path fill-rule="evenodd" clip-rule="evenodd" d="M124.807 50.0717C120.15 51.2464 105.965 52.4775 102.335 56.9262C106.418 64.0951 122.595 65.2698 126.725 72.3796C120.576 68.2428 107.737 62.0845 99.3877 59.918C89.6004 57.3778 92.4354 63.5253 89.2597 72.1619C90.7344 75.5166 95.2533 84.4784 95.6378 87.3815C93.1532 84.4166 91.0653 70.6244 86.9772 78.0621C80.5553 89.7497 90.5373 92.1232 94.8566 103.01C92.0484 98.9373 86.6827 90.8571 83.198 85.8762L80.8425 90.3948C76.6862 89.2336 74.9755 89.5991 74.9755 89.5991C77.404 96.0638 85.1326 109.759 87.3543 113.85C79.8837 105.76 76.8468 98.01 72.8048 89.2604C69.5538 89.4029 66.4949 87.6369 63.3509 87.2175C63.0297 94.7359 66.0788 99.5179 66.1177 104.773C63.5967 96.7762 62.1123 79.304 47.4995 84.9408C43.3943 94.0935 49.5339 112.133 49.658 120.068C47.0469 111.515 47.2343 99.1228 43.679 91.5802C38.9679 91.2765 31.5921 90.9324 33.0254 94.3032C23.7175 96.9482 -0.502479 112.791 3.6222 117.159C11.0393 125.038 27.2168 135.008 37.374 137.295C37.8412 134.325 39.0798 129.124 40.1286 127.403C41.2164 132.102 42.6716 138.118 47.0688 139.279C48.2685 137.715 46.6113 133.86 46.8449 131.583C50.7043 136.661 61.0367 142.534 68.2908 138.841C69.0427 135.933 66.1591 131.591 67.7627 129.667C68.7167 137.709 85.6607 138.497 87.0477 131.183C87.6439 128.027 84.5048 125.93 84.5681 123.621C86.9358 126.487 88.043 130.422 92.2796 130.132C101.339 129.497 95.173 115.856 93.674 110.49C95.9249 115.272 98.5019 122.372 101.748 126.089C104.133 125.433 105.415 121.468 103.98 118.2C111.915 124.261 112.738 119.544 109.657 107.544C110.36 109.84 113.429 115.498 115.38 116.463C122.537 113.068 112.421 100.066 111.139 97.5207C114.198 100.117 117.816 108.993 122.235 110.13C123.024 109.464 123.094 104.795 123.715 103.945C123.136 99.8351 121.447 96.2627 119.339 93.0237C122.316 96.9025 125.467 100.373 128.913 102.295C131.667 98.5449 126.491 87.8089 124.929 85.0591C127.307 86.1101 131.363 93.2414 134.597 93.3758C137.668 91.7038 133.315 83.0162 131.29 79.9841C132.536 80.5459 136.451 84.9381 138.734 84.3951C139.544 80.3308 134.626 75.2531 133.526 71.928C134.933 72.3178 139.357 77.0649 141.184 76.995C143.226 68.1729 146.295 58.0068 145.813 37.5993C142.323 37.6611 128.346 49.1793 124.807 50.0717ZM107.323 77.2208C110.146 80.062 112.986 84.2392 115.972 88.446C112.699 84.3897 109.233 80.8066 107.323 77.2208Z" fill="url(#paint1_linear_6_97)" fill-opacity="0.65"/>
<defs>
<linearGradient id="paint0_linear_6_97" x1="73" y1="0.216736" x2="73" y2="111.622" gradientUnits="userSpaceOnUse">
<stop stop-color="#8A2387"/>
<stop offset="0.519097" stop-color="#E94057"/>
<stop offset="1" stop-color="#F27121"/>
</linearGradient>
<linearGradient id="paint1_linear_6_97" x1="74.5086" y1="37.5993" x2="74.5086" y2="140" gradientUnits="userSpaceOnUse">
<stop stop-color="#8A2387"/>
<stop offset="0.519097" stop-color="#E94057"/>
<stop offset="1" stop-color="#F27121"/>
</linearGradient>
</defs>
</svg>

<svg width="146" height="140" fill="none" xmlns="http://www.w3.org/2000/svg"><path fill-rule="evenodd" clip-rule="evenodd" d="M10.837 101.983c2.536.164 4.989.231 6.283-1.038 9.96-5.768 14.584-7.623-1.861-12.752 3.112-.365 20.516 6.288 26.03-.967 4.531-3.498-17.861-8.12-19.012-11.623 4.232 2.881 23.331 12.225 26.977 3.868-.638-2.95-3.151-8.255-11.578-11.293 2.922.707 7.546-.062 9.417-2.19-.681-2.774-11.435-9.882-12.447-19.131 3.443 5.518 7.977 14.628 13.403 16.343 0 0 1.716-4.48 7.593-6.271-5.42-.003-11.014-3.47-11.74-6.508 3.906 6.892 17.453 3.36 23.092 9.123 0 0-1.03-3.916 2.764-9.136.406-1.234-2.078-3.406-.91-3.841.533.725.671 2.58 2.27 2.26 3.645-1.588 6.892-6.733 4.505-11.255 1.657 1.03 1.795 5.153 2.092 7.508 2.2.08 6.113-.43 10.094 3.927.789-.664.52-2.088 1.288-2.782.778 2.858.77 9.204 4.55 9.131 3-.053 6.833-7.255 7.471-10.064-.139 6.884 3.368 6.083 4.438 6.269 2.83-.31 5.804-10.15 7.167-10.169-.463 1.24-.606 5.07-.331 7.153 3.01.71 10.765-3.28 12.24-5.118-.192 1.357-.861 2.153-.591 4.035 2.616.645 18.202-7.481 21.959-15.758-4.195-2.19-7.454-4.54-10.654-5.599-1.854 1.81-1.995 9.433-4.29 8.774 1.217-1.685 3.911-8.129 1.509-10.236-10.337-7.795-5.142 5.86-6.154 7.252.058-2.513-4.668-16.389-9.043-15.133-.864 1.169-2.589-7.019-5.502 10.808.253-2.905 3.662-14.65-12.298-19.504-.801 4.451 4.716 17.956 3.399 21.071-.577-5.811-4.614-19.558-7.483-22.928C89.384 3.623 78.842-1.286 74.1.663c-5.353 1.634 8.269 14.846 4.478 20.496.854-7.897-7.649-16.087-13.382-16.246-11.84 6.69-2.285 18.996-4.01 24.786-1.03-7.104-4.456-8.83-3.791-17.063-3.081 2.247-3.356 6.47-6.468 9.768-1.582.462-2.485-.42-4.072.046-2.852 3.204 2.378 10.2 1.283 13.02-1.833-4.55-1.896-11.045-6.558-11.835-3.762-2.798-11.858-.462-17.796 3.855-6.833 2.05-13.481 22.332-13.14 25.275.438 3.74 6.283 4.145 6.677 7.707-2.412-1.382-3.183-4.516-7.225-4.18-1.497 3.204-2.266 5.803-2.59 10.351 4.191 3.092 9.243 5.793 10.574 10.046-3.687-1.554-5.877-7.702-10.853-5.995C.914 90.27 8.499 86.53 9.506 89.244c-2.163.75-4.246-1.475-5.217-.1-4.855 10.027.693 9.836 1.348 11.594l-3.65-.072C.079 102.518-.32 108.862.222 111.622c3.982-2.083 12.886-4.263 10.615-9.639Z" fill="url(#a)" fill-opacity=".65"/><path fill-rule="evenodd" clip-rule="evenodd" d="M124.807 50.072c-4.657 1.174-18.842 2.405-22.472 6.854 4.083 7.17 20.26 8.344 24.39 15.454-6.149-4.137-18.988-10.295-27.337-12.462-9.788-2.54-6.953 3.607-10.128 12.244 1.474 3.355 5.993 12.316 6.378 15.22-2.485-2.965-4.573-16.758-8.66-9.32-6.423 11.688 3.56 14.061 7.879 24.948-2.809-4.073-8.174-12.153-11.659-17.134l-2.355 4.519c-4.157-1.161-5.868-.796-5.868-.796 2.429 6.465 10.158 20.16 12.38 24.251-7.471-8.09-10.508-15.84-14.55-24.59-3.251.143-6.31-1.623-9.454-2.043-.321 7.519 2.728 12.3 2.767 17.556-2.521-7.997-4.006-25.469-18.618-19.832-4.106 9.153 2.034 27.192 2.158 35.127-2.611-8.553-2.424-20.945-5.979-28.488-4.711-.303-12.087-.648-10.654 2.723-9.307 2.645-33.527 18.488-29.403 22.856 7.417 7.879 23.595 17.849 33.752 20.136.467-2.97 1.706-8.171 2.755-9.892 1.087 4.699 2.543 10.715 6.94 11.876 1.2-1.564-.458-5.419-.224-7.696 3.86 5.078 14.192 10.951 21.446 7.258.752-2.908-2.132-7.25-.528-9.174.954 8.042 17.898 8.83 19.285 1.516.596-3.156-2.543-5.253-2.48-7.562 2.368 2.866 3.475 6.801 7.712 6.511 9.059-.635 2.893-14.276 1.394-19.642 2.25 4.782 4.828 11.882 8.074 15.599 2.385-.656 3.667-4.621 2.232-7.889 7.935 6.061 8.758 1.344 5.677-10.656.703 2.296 3.772 7.954 5.723 8.919 7.157-3.395-2.959-16.397-4.241-18.942 3.059 2.596 6.677 11.472 11.096 12.609.789-.666.859-5.335 1.48-6.185-.579-4.11-2.268-7.682-4.376-10.921 2.977 3.879 6.128 7.349 9.574 9.271 2.754-3.75-2.422-14.486-3.984-17.236 2.378 1.051 6.434 8.182 9.668 8.317 3.071-1.672-1.282-10.36-3.307-13.392 1.246.562 5.161 4.954 7.444 4.411.81-4.064-4.108-9.142-5.208-12.467 1.407.39 5.831 5.137 7.658 5.067 2.042-8.822 5.111-18.988 4.629-39.396-3.49.062-17.467 11.58-21.006 12.473ZM107.323 77.22c2.823 2.841 5.663 7.018 8.649 11.225-3.273-4.056-6.739-7.64-8.649-11.225Z" fill="url(#b)" fill-opacity=".65"/><defs><linearGradient id="a" x1="73" y1=".217" x2="73" y2="111.622" gradientUnits="userSpaceOnUse"><stop stop-color="#8A2387"/><stop offset=".519" stop-color="#E94057"/><stop offset="1" stop-color="#F27121"/></linearGradient><linearGradient id="b" x1="74.509" y1="37.599" x2="74.509" y2="140" gradientUnits="userSpaceOnUse"><stop stop-color="#8A2387"/><stop offset=".519" stop-color="#E94057"/><stop offset="1" stop-color="#F27121"/></linearGradient></defs></svg>
